!!!!SEGMENT: pl-cz--ii-87--002-004_grim-jozef--spiewy-do-dwoch-mszy-offertorium.krn
!!!cenid: 18xx:1176
!!!COM: Grim, Józef
!!!COM-rismid: pe30003883
!!!CDT: ~1800-~1899
!!!CNT:
!!!OPR: Śpiewy do dwóch mszy
!!!OTL: Offertorium
!!!OMV: 004
!!!PDT: 1888
!!!AGN: Sacred; Mass
!!!SMS-siglum: PL-CZ
!!!SMS-shelfmark: II-87
!!!SMS-shelfwork: 002-004 M
!!!SMS-variant:
!!!SMS-altvar:
!!!NIFC-rismid: 300033225
!!!URL-scan: http://repozytorium.nifc.pl/skany/pl-cz-nut--ii-87
!!!ONB-nifc: UWAGA: części Mszy: Kirie, Gloria, Credo, Offertorium, Sanctus, Benedictus, Agnus Dei
!!!key: F
!!!OMD: Andante
**kern	**kern	**dynam	**kern	**text
*part3	*part2	*part2	*part1	*part1
*staff3	*staff2	*	*staff1	*staff1
*I"Organ	*I"Organ	*	*I"Głos	*
*Iorgan	*Iorgan	*	*Ivox	*
*ICklav	*ICklav	*	*ICvox	*
*IGacmp	*IGacmp	*	*IGsolo	*
*clefF4	*clefG2	*	*clefG2	*
*k[b-]	*k[b-]	*	*k[b-]	*
*F:	*F:	*	*F:	*
*M4/4	*M4/4	*	*M4/4	*
*met(c)	*met(c)	*	*met(c)	*
=1	=1	=1	=1	=1
*^	*^	*	*	*
2r	2ryy	8r	2ryy	.	1r	.
.	.	8cc\L	.	.	.	.
.	.	8ff\	.	.	.	.
.	.	8dd\J	.	.	.	.
4r	4ryy	8cc\L	4ryy	.	.	.
.	.	8a\J	.	.	.	.
4B-/	4C\	8g/L	4e\	.	.	.
.	.	8a/J	.	.	.	.
=2	=2	=2	=2	=2	=2	=2
2A/	2D\	2f/	2d\	.	1r	.
2BB-/	2ryy	2f/	2d 2B-\	.	.	.
*v	*v	*	*	*	*	*
*	*v	*v	*	*	*
=3	=3	=3	=3	=3
2.F 2.FF;</	2.f 2.c 2.A;/	.	1r	.
4r	8c/L	.	.	.
.	8f/J	.	.	.
=4||	=4||	=4||	=4||	=4||
*	*^	*	*	*
4F 4FF/	4a/	4f 4c\	.	4a/	Niech
2F\	8aL 8f/	2.f\	.	8a/	z rę-
.	8b-J 8g/	.	.	8b-/	-ki
.	4cc 4a/	.	.	4cc\	two-
4F\	8bnL 8g#X/	.	.	8bn\	-jej
.	8ccJ 8a/	.	.	8cc\	ka-
=5	=5	=5	=5	=5	=5
4BB-/	2dd 2b-/	2.f\	.	2dd\	-pła-
4D\	.	.	.	.	.
4F\	4cc 4a/	.	.	4cc\	-nie,
4B- 4G\	4cc/	4e\	.	4r	.
!!LO:LB:g=original
=6	=6	=6	=6	=6	=6
*^	*	*	*	*	*
2c/	4A\	4cc/	2f\	.	4cc\	Bóg
.	8G\L	8b-/L	.	.	8b-\	przyj-
.	8F\J	8a/J	.	.	8a/	-mie
2ryy	2D\	4a 4f/	2ryy	.	4a\	swię-
.	.	8gL 8e/	.	.	8g/	-tą
.	.	8fJ 8d/	.	.	8f/	o-
*v	*v	*	*	*	*	*
=7	=7	=7	=7	=7	=7
4C/	4g 4e/	4ryy	.	(4g/	-fia-
8F\L	8a/L	4f\	.	4a/)	.
8A\J	8cc/J	.	.	.	.
8c\L	4g/	4e\	.	4g/	-re
16C\L	.	.	.	.	.
16BB-\JJ	.	.	.	.	.
8AA/L	4c/	4ryy	.	4r	.
8GG/J	.	.	.	.	.
=8	=8	=8	=8	=8	=8
4FF/	4a/	4f 4c\	.	4a/	a
2F\	8aL 8f/	2.f\	.	8a/	sło-
.	8b-J 8g/	.	.	8b-/	-wo
.	4cc 4a/	.	.	4cc\	cia-
4F\	8bnL 8g#X/	.	.	8bn\	-łem
.	8ccJ 8a/	.	.	8cc\	się
=9	=9	=9	=9	=9	=9
8BB-/L	2dd 2b-/	2.f\	.	2dd\	sta-
8C/	.	.	.	.	.
8D/	.	.	.	.	.
8E/J	.	.	.	.	.
8F\L	4cc 4a/	.	.	4cc\	-nie
8c\	.	.	.	.	.
8A\	4r	4ryy	.	4r	.
8F\J	.	.	f	.	.
=10	=10	=10	=10	=10	=10
2G\	4cc/	2e\	.	4cc\	i
.	4g/	.	.	8g/	cud
.	.	.	.	8g/	o-
4GG/	8gL 8e/	2ryy	.	8g/L	-ba-
.	8a 8f/	.	.	8a/J	.
4G\	8bn 8d/	.	.	8bn\	-czym
.	8ccJ 8e/	.	.	8cc\	[przez]
!!LO:LB:g=original
=11	=11	=11	=11	=11	=11
*^	*	*	*	*	*
4A/	2G\	2dd/	8f\L	.	2dd\	przez
.	.	.	8f#X\	.	.	.
4Bn/	.	.	8g\	.	.	.
.	.	.	8fn\J	.	.	.
8c/L	8C\	4cc/	4e\	.	4cc\	wiarę .
8c/	8r	.	.	.	.	.
8c/	4r	4r	4ryy	p	4r	.
8c/J	.	.	.	.	.	.
*	*	*v	*v	*	*	*
=12	=12	=12	=12	=12	=12
2c/	2r	8r	.	8r	.
.	.	8ccL 8a/	.	8cc\	Gdzie
.	.	8b- 8g/	.	8b-\	chle-
.	.	8aJ 8f/	.	8a/	-ba
[2c/	8r	4a 4f/	.	4a/	wi-
.	8C\L	.	.	.	.
.	8C\	8g#XL 8e/	.	8g#X/	-na
.	[8C\J	8aJ 8f/	.	8a/	i
=13	=13	=13	=13	=13	=13
*	*	*^	*	*	*
8c/L]	2C\]	4cc/	4f#X\	.	4cc\	sto-
8c/	.	.	.	.	.	.
!	!	!	!	!	!LO:SIC:v:l:s=-ła:t=prawdopodobnie	!
8c/	.	2b-/	4.g\	.	4b-\	-ta
8c/J	.	.	.	.	.	.
4c\	2ryy	.	.	.	4r	.
.	.	.	8fn\	.	.	.
4C/	.	8ddL 8b-/	4e\	.	4r	.
.	.	8cc/J	.	.	.	.
=14	=14	=14	=14	=14	=14	=14
2c/	[2C\	8ccL 8a/	4f\	.	8r	.
.	.	8cc 8a/	.	.	8cc\	Bóg
.	.	8b- 8g/	4ryy	.	8b-\	zni-
.	.	8aJ 8f/	.	.	8a\	-dzie
2c/	8C\L]	4a 4f/	2ryy	.	4a/	ku
.	8C\	.	.	.	.	.
.	8C\	8g#XL 8e/	.	.	8g#X/	dzia-
.	8C\J	8aJ 8f/	.	.	8a/	-twie
*	*	*v	*v	*	*	*
=15	=15	=15	=15	=15	=15
8c/L	2C\	4cc 4f#X/	.	4cc\	swo-
8c/	.	.	.	.	.
8c/	.	4b- 4g/	.	4b-\	-jej
8c/J	.	.	.	.	.
8c/L	4C\	4r	.	4r	.
8B-/	.	.	.	.	.
8A/	4ryy	4c/	.	4r	.
8G/J	.	.	.	.	.
*v	*v	*	*	*	*
!!LO:PB:g=original
=16	=16	=16	=16	=16
*	*^	*	*	*
4F\	4a 4f 4c/	4ryy	.	4a/	na-
2F\	8aL 8f/	2f\	.	8a/	-kar-
.	8b-J 8g/	.	.	8b-\	-mi
.	4cc 4a/	.	.	4cc\	cia-
4FF/	8bnL 8g#X/	4f\	.	8bn\	-łem
.	8ccJ 8a/	.	.	8cc\	ży-
=17	=17	=17	=17	=17	=17
4F\	2dd/	2a 2d\	.	2dd\	-wo-
4F#X\	.	.	.	.	.
8G\L	8b-L 8g 8d/	2ryy	.	8b-\	-ta
8GG\J	8b- 8g 8d/	.	.	8b-\	krwią
8AA/L	8a 8f#X 8e-X/	.	.	8a/	swo-
8BB-/J	8gJ 8d/	.	.	8g/	-jej
=18	=18	=18	=18	=18	=18
*^	*	*	*	*	*
!LO:N:vis=2	!	!	!	!	!	!
2.A/	2C\	2cc/	[2f\	.	2cc\	ła-
.	2D\	4a/	2f\]	.	4a/	-ski
4Bn\	.	4f/	.	.	4f/	na
*v	*v	*	*	*	*	*
=19	=19	=19	=19	=19	=19
!	!LO:N:vis=2	!	!	!	!
2C/	2.a/	2f 2c\	.	2.a/	po-
2CC/	.	2e 2B-\	.	.	.
.	4g/	.	.	4g/	.
=20	=20	=20	=20	=20	=20
2FF;/	2f;/	2A\	.	2f/	-i.
4r	8r	2ryy	.	2r;	.
.	8cc\L	.	.	.	.
4r	8ff\	.	.	.	.
.	8dd\J	.	.	.	.
*	*v	*v	*	*	*
==	==	==	==	==
*-	*-	*-	*-	*-
!!!system-decoration: <s1>(s2,s3)
!!!RDF**kern: < = below
!!!ENC: Andrzej Borzym
!!!END: 2020-11-08
!!!ENC: Marta Lawrence
!!!END: 2021-11-14
